X: 34806
T: Road To Taynuilt, The
R: reel
M: 4/4
K: Dmajor
|:d|AFEF D3 B|ADBd ADFA|BGGF G3 F|EFGA BAdB|
AFEF D3 B|ADBd ADFA|BAAF AdAF|E2 DE FDD:|
|:c|d3 A BdAF|DFAd BAFA|BGGF G3 F|EFGA BABc|
d3 A BdAF|DFAd BAFA|BAAF AdAF|E2 DE FDD:|

